X:786
T:Reel 786
M:4/4
K:Dmaj
L:1/8
D2FD FAAF|GFGA BcdB|DFAF FAdA| (3Bcd AG FDD2:|A2 (3cBA BAcA|BAGA BcdA| (3FFF Be cAAc|BAGF GFE2|Bd (3cdc BAFA| (3Bcd AF GFEF|D2 (3FED EDdc| (3Bcd AF FDD2|
